X:11
T:Doubtful Shepherd THO4.011, The
M:C|
L:1/8
Z:vmp. Peter Dunk 2010/11.from a transcription by Fynn Titford-Mock 2007
B:Thompson's Compleat Collection of 200 Favourite Country Dances Volume IV.
Q:1/2=100
K:G
g2d2 cBAG|F2A2 A4|E2 GE F2 AF|G2"G.Fl.""_Vio."[B2D2] [d2B,2][g2G,2]|\
g2d2 cBAG|F2A2 A4|E2 GE F2 AF|G2G2 G4:|
|:dBdB G2G2|AFAF D4|E2 GE F2 AF|{AB}c2B2B2A2|dBdB G2G2|\
AFAF D4|"G.Fl.""_Vio."[B2B,2][dD][BB,] [c2C2] [eE][cC]|[d2D2] [f2F2] [g4G4]:|
